X: 3489
T: Biddlestone, The
R: hornpipe
M: 4/4
K: Gmajor
|:D/|G>d B>G F>A D2|E>G c>e d>B G>B|(3cde (3ABc (3Bcd G>B|1 A>B A>G F>A d>:|2 e>c A>F G2 G||
(3d/e/f/|g>d B>d f>a d2|(3efg c>e d>B G>B|(3cde A>c (3Bcd G>B|A>^c e>g f>d e>f|
g>d B>g f>a d2|(3efg c>e d>B G>B|(3cde (3ABc (3Bcd G>d|e>c A>F G3||

